symbols/web/record_voice_over/materialsymbolsrounded/record_voice_over_wght300_48px.svg

<svg xmlns="http://www.w3.org/2000/svg" height="48" width="48"><path d="M38.9 30.65q-.4-.4-.425-.95-.025-.55.325-.95 1.9-2.2 2.9-4.675 1-2.475 1-5.725 0-3.3-1-5.775-1-2.475-2.9-4.675-.35-.4-.35-.925T38.9 6q.4-.4.9-.375.5.025.85.425 2.15 2.5 3.4 5.525Q45.3 14.6 45.3 18.35q0 3.75-1.25 6.75t-3.4 5.5q-.35.4-.85.425-.5.025-.9-.375Zm-7-7.1q-.35-.35-.4-.85-.05-.5.25-.95.5-.7.775-1.575t.275-1.825q0-1.05-.275-1.9-.275-.85-.775-1.55-.3-.45-.25-.95.05-.5.4-.85.4-.4.975-.375.575.025.875.475.75 1.1 1.2 2.4.45 1.3.45 2.75 0 1.4-.45 2.7-.45 1.3-1.2 2.4-.3.5-.875.5t-.975-.4Zm-14.2 1.4q-2.9 0-4.75-1.875T11.1 18.35q0-2.9 1.85-4.775Q14.8 11.7 17.7 11.7t4.775 1.875q1.875 1.875 1.875 4.775 0 2.85-1.875 4.725Q20.6 24.95 17.7 24.95ZM4.15 40.25q-.6 0-1.025-.425Q2.7 39.4 2.7 38.8v-2.35q0-1.7.85-2.825Q4.4 32.5 5.8 31.8q2.5-1.25 5.775-2.05 3.275-.8 6.125-.8t6.125.8q3.275.8 5.775 2.05 1.4.7 2.25 1.825.85 1.125.85 2.825v2.35q0 .6-.4 1.025-.4.425-1.05.425Zm.85-2.3h25.45v-1.5q0-.85-.475-1.525-.475-.675-1.325-1.125-2.25-1.25-5.25-1.9-3-.65-5.7-.65t-5.7.675Q9 32.6 6.75 33.8q-.75.4-1.25 1.1-.5.7-.5 1.55ZM17.7 22.7q1.9 0 3.15-1.25t1.25-3.1q0-1.9-1.25-3.15t-3.15-1.25q-1.85 0-3.1 1.25t-1.25 3.15q0 1.85 1.25 3.1t3.1 1.25Zm0-4.35Zm0 19.6Z"/></svg>

<svg xmlns="http://www.w3.org/2000/svg" height="48" width="48"><path d="M38.9 30.65Q38.5 30.25 38.475 29.7Q38.45 29.15 38.8 28.75Q40.7 26.55 41.7 24.075Q42.7 21.6 42.7 18.35Q42.7 15.05 41.7 12.575Q40.7 10.1 38.8 7.9Q38.45 7.5 38.45 6.975Q38.45 6.45 38.9 6Q39.3 5.6 39.8 5.625Q40.3 5.65 40.65 6.05Q42.8 8.55 44.05 11.575Q45.3 14.6 45.3 18.35Q45.3 22.1 44.05 25.1Q42.8 28.1 40.65 30.6Q40.3 31 39.8 31.025Q39.3 31.05 38.9 30.65ZM31.9 23.55Q31.55 23.2 31.5 22.7Q31.45 22.2 31.75 21.75Q32.25 21.05 32.525 20.175Q32.8 19.3 32.8 18.35Q32.8 17.3 32.525 16.45Q32.25 15.6 31.75 14.9Q31.45 14.45 31.5 13.95Q31.55 13.45 31.9 13.1Q32.3 12.7 32.875 12.725Q33.45 12.75 33.75 13.2Q34.5 14.3 34.95 15.6Q35.4 16.9 35.4 18.35Q35.4 19.75 34.95 21.05Q34.5 22.35 33.75 23.45Q33.45 23.95 32.875 23.95Q32.3 23.95 31.9 23.55ZM17.7 24.95Q14.8 24.95 12.95 23.075Q11.1 21.2 11.1 18.35Q11.1 15.45 12.95 13.575Q14.8 11.7 17.7 11.7Q20.6 11.7 22.475 13.575Q24.35 15.45 24.35 18.35Q24.35 21.2 22.475 23.075Q20.6 24.95 17.7 24.95ZM4.15 40.25Q3.55 40.25 3.125 39.825Q2.7 39.4 2.7 38.8V36.45Q2.7 34.75 3.55 33.625Q4.4 32.5 5.8 31.8Q8.3 30.55 11.575 29.75Q14.85 28.95 17.7 28.95Q20.55 28.95 23.825 29.75Q27.1 30.55 29.6 31.8Q31 32.5 31.85 33.625Q32.7 34.75 32.7 36.45V38.8Q32.7 39.4 32.3 39.825Q31.9 40.25 31.25 40.25ZM5 37.95H30.45V36.45Q30.45 35.6 29.975 34.925Q29.5 34.25 28.65 33.8Q26.4 32.55 23.4 31.9Q20.4 31.25 17.7 31.25Q15 31.25 12 31.925Q9 32.6 6.75 33.8Q6 34.2 5.5 34.9Q5 35.6 5 36.45ZM17.7 22.7Q19.6 22.7 20.85 21.45Q22.1 20.2 22.1 18.35Q22.1 16.45 20.85 15.2Q19.6 13.95 17.7 13.95Q15.85 13.95 14.6 15.2Q13.35 16.45 13.35 18.35Q13.35 20.2 14.6 21.45Q15.85 22.7 17.7 22.7ZM17.7 18.35Q17.7 18.35 17.7 18.35Q17.7 18.35 17.7 18.35Q17.7 18.35 17.7 18.35Q17.7 18.35 17.7 18.35Q17.7 18.35 17.7 18.35Q17.7 18.35 17.7 18.35Q17.7 18.35 17.7 18.35Q17.7 18.35 17.7 18.35ZM17.7 37.95Q17.7 37.95 17.7 37.95Q17.7 37.95 17.7 37.95Q17.7 37.95 17.7 37.95Q17.7 37.95 17.7 37.95Q17.7 37.95 17.7 37.95Q17.7 37.95 17.7 37.95Q17.7 37.95 17.7 37.95Q17.7 37.95 17.7 37.95Z"/></svg>
